Sources/FrostedUI/Resources/Icons.xcassets/rectangleStack24.imageset/rectangle-stack-24.svg

<svg width="24" height="24" viewBox="0 0 24 24" fill="none" xmlns="http://www.w3.org/2000/svg" data-fui-icon="true">
  <path
    d="M19.5 15.8184C21.2949 15.8184 22.7499 17.2735 22.75 19.0684V20.0225C22.75 20.4367 22.4142 20.7725 22 20.7725C21.5858 20.7725 21.25 20.4367 21.25 20.0225V19.0684C21.2499 18.1019 20.4665 17.3184 19.5 17.3184H4.5C3.53354 17.3184 2.75007 18.1019 2.75 19.0684V20.0225C2.75 20.4367 2.41421 20.7725 2 20.7725C1.58579 20.7725 1.25 20.4367 1.25 20.0225V19.0684C1.25007 17.2735 2.70512 15.8184 4.5 15.8184H19.5ZM19.5 4C21.2949 4 22.75 5.45507 22.75 7.25V10.4316C22.75 12.2266 21.2949 13.6816 19.5 13.6816H4.5C2.70507 13.6816 1.25 12.2266 1.25 10.4316V7.25C1.25 5.45507 2.70508 4 4.5 4H19.5ZM4.5 5.5C3.5335 5.5 2.75 6.2835 2.75 7.25V10.4316C2.75 11.3981 3.5335 12.1816 4.5 12.1816H19.5C20.4665 12.1816 21.25 11.3981 21.25 10.4316V7.25C21.25 6.2835 20.4665 5.5 19.5 5.5H4.5Z"
    fill="currentColor"
  />
</svg>

<svg xmlns="http://www.w3.org/2000/svg" width="24" height="24" fill="none" data-fui-icon="true" viewBox="0 0 24 24"><path fill="currentColor" d="M19.5 15.818a3.25 3.25 0 0 1 3.25 3.25v.954a.75.75 0 0 1-1.5 0v-.954a1.75 1.75 0 0 0-1.75-1.75h-15a1.75 1.75 0 0 0-1.75 1.75v.954a.75.75 0 0 1-1.5 0v-.954a3.25 3.25 0 0 1 3.25-3.25zM19.5 4a3.25 3.25 0 0 1 3.25 3.25v3.182a3.25 3.25 0 0 1-3.25 3.25h-15a3.25 3.25 0 0 1-3.25-3.25V7.25A3.25 3.25 0 0 1 4.5 4zm-15 1.5a1.75 1.75 0 0 0-1.75 1.75v3.182c0 .966.784 1.75 1.75 1.75h15a1.75 1.75 0 0 0 1.75-1.75V7.25A1.75 1.75 0 0 0 19.5 5.5z"/></svg>
